!!!COA:	Josquin des Prez
!!!CDT:	~1450-1521/08/27
!!!OTL: Textless Piece 3
!!!AGN:	Chanson
!!!SCT:	NJE 28.38
!!!SCA:	New Josquin Edition 28.38
!!!voices:	4
**kern	**kern	**kern	**kern
*staff4	*staff3	*staff2	*staff1
*Ivox	*Ivox	*Ivox	*Ivox
*I"Bassus	*I"Tenor	*I"Altus	*I"Superius
*I'B	*I'T	*I'A	*I'S
*clefF4	*clefGv2	*clefGv2	*clefG2
*k[]	*k[]	*k[]	*k[]
*M2/1	*M2/1	*M2/1	*M2/1
*met(C|)	*met(C|)	*met(C|)	*met(C|)
=1-	=1-	=1-	=1-
2r	0r	0r	0r
2AA/	.	.	.
2AA/	.	.	.
2AA/	.	.	.
=2	=2	=2	=2
2C/	0r	1r	0r
2C/	.	.	.
2D\	.	2r	.
[2F\	.	2A/	.
=3	=3	=3	=3
2F\]	0r	2A/	0r
4E\	.	2A/	.
4D\	.	.	.
1E	.	2c\	.
.	.	2c\	.
=4	=4	=4	=4
1.D	2r	2d\	0r
.	2A/	1f	.
.	2A/	.	.
4C/	2A/	4e\	.
4BB/	.	4d\	.
=5	=5	=5	=5
1AA	2c\	1e	1r
.	2c\	.	.
1r	2d\	[1d	2r
.	[2f\	.	2a/
=6	=6	=6	=6
2r	2f\]	2d\]	2a/
2A\	4e\	4c\	2a/
.	4d\	4B\	.
2A\	1e	2A/	2cc\
2A\	.	2a\	2cc\
=7	=7	=7	=7
2D\	2d\	2a\	1dd
2D\	2f\	2a\	.
2A\	2e\	2a\	2cc\
2B\	[2d\	2f\	[2b\
=8	=8	=8	=8
2G\	4d\]	4g\	4b\]
.	4c\	4f\	4a/
2A\	4B\	4e\	1a
.	4A/	4d\	.
1E	1B	1e	.
.	.	.	2g#i/
=9	=9	=9	=9
2.F\	1A	1c	0a
4E\	.	.	.
4D\	2r	2r	.
4C/	.	.	.
[2D\	2d\	[2f\	.
=10	=10	=10	=10
2D\]	2d\	2f\]	2r
4C/	2d\	4e\	2a/
4BB/	.	4d\	.
1AA	2.c\	1e	2a/
.	.	.	2a/
.	4d\	.	.
=11	=11	=11	=11
0r	2e\	2e\	2g/
.	2.f\	1d	2.a/
.	4e\	.	4g/
.	[2e\	2c\	4f/
.	.	.	4e/
=12	=12	=12	=12
1r	2e\]	1d	2f/
.	2d\	.	4e/
.	.	.	4d/
2r	1e	1A	1c
2A\	.	.	.
=13	=13	=13	=13
2A\	2r	1r	2r
2A\	2e\	.	2cc\
2G\	2e\	2r	2b\
[2A\	2e\	2e\	2cc\
=14	=14	=14	=14
4A\]	4c\	2e\	2a/
4G\	4B\	.	.
4F\	4A/	2e\	2.cc\
4E\	4G/	.	.
1F	1A	2c\	.
.	.	.	4b\
.	.	2d\	[2a/
=15	=15	=15	=15
1E	1B	1e	2a/]
.	.	.	2g#i/
2r	1A	[1c	1a
2A\	.	.	.
=16	=16	=16	=16
2A\	2r	1c]	2r
2A\	2e\	.	2cc\
2G\	2e\	2r	2b\
[2A\	2e\	2e\	2cc\
=17	=17	=17	=17
4A\]	4c\	2e\	2a/
4G\	4B\	.	.
4F\	4A/	2e\	2.cc\
4E\	4G/	.	.
1F	1A	2c\	.
.	.	.	4b\
.	.	2d\	[2a/
=18	=18	=18	=18
1E	1B	0e	2a/]
.	.	.	2g#i/
2r	2A/	.	1a
2A\	2c\	.	.
=19	=19	=19	=19
2B-i\	2d\	2r	2r
2A\	2e\	2c\	2e/
2r	2r	2d\	2f/
2A\	2c\	2e\	2e/
=20	=20	=20	=20
2B-i\	2d\	2r	2r
2A\	2e\	2c\	2e/
2r	2r	2d\	2f/
2A\	2c\	2e\	2e/
=21	=21	=21	=21
2B-i\	2d\	2r	2r
2A\	2e\	2c\	2e/
2r	2r	2d\	2f/
2AA/	2c\	2e\	2e/
=22	=22	=22	=22
2D\	2d\	1A	2f/
2AA/	2.c\	.	2.e/
2C/	.	2G/	.
.	4B\	.	4d/
2D\	[2A/	2F/	[2f/
=23	=23	=23	=23
1BB	2A/]	1D	4f/]
.	.	.	4e/
.	2G#i/	.	1d
1AA	[1A	1E	.
.	.	.	2c#i/
=24	=24	=24	=24
2r	2A/]	1D	1d
2F\	4G/	.	.
.	4F/	.	.
2E\	2G/	1r	2r
2D\	2A/	.	2f/
=25	=25	=25	=25
2C/	2r	2r	2e/
2D\	2F/	2A/	2d/
2r	2E/	2G/	2c/
2F\	2D/	2A/	2d/
=26	=26	=26	=26
2E\	2C/	2.A/	2r
2D\	2D/	.	2f/
.	.	4B\	.
2C/	2r	2c\	2e/
2D\	2F/	2A/	2d/
=27	=27	=27	=27
2r	2E/	2G/	2c/
2D\	2F/	2A/	2d/
2BB-/	2G/	2D/	2r
2AA/	2A/	2E/	2c/
=28	=28	=28	=28
2D\	2B\	2F/	2d/
2C/	2c\	2G/	2e/
1BB-i	1d	1D	[1f
=29	=29	=29	=29
2r	0c	0A	2f/]
2AA/	.	.	4e/
.	.	.	4d/
2AA/	.	.	[1e
2AA/	.	.	.
=30	=30	=30	=30
2C/	0r	2r	1e]
2C/	.	2A/	.
4D\	.	2A/	1r
4E\	.	.	.
4F\	.	2A/	.
4D\	.	.	.
=31	=31	=31	=31
1E	1r	2c\	0r
.	.	2c\	.
[1D	2r	2d\	.
.	2A/	[2f\	.
=32	=32	=32	=32
2D\]	2A/	2f\]	1r
4C/	2A/	4e\	.
4BB/	.	4d\	.
1AA	2c\	1e	2r
.	2c\	.	2a/
=33	=33	=33	=33
2r	4d\	1r	2a/
.	4e\	.	.
2A\	4f\	.	2a/
.	4d\	.	.
2A\	1e	2r	2cc\
2A\	.	2a\	2cc\
=34	=34	=34	=34
2D\	2d\	2a\	1dd
2D\	2f\	2a\	.
2A\	2e\	2a\	2cc\
2B\	[2d\	2f\	[2b\
=35	=35	=35	=35
2G\	4d\]	2g\	4b\]
.	4c\	.	4a/
2A\	4B\	2e\	1a
.	4A/	.	.
1E	1B	2e\	.
.	.	2e\	2g#i/
=36	=36	=36	=36
2.F\	1A	2c\	0a
.	.	2c\	.
4E\	.	.	.
4D\	2r	2d\	.
4C/	.	.	.
[2D\	2d\	[2f\	.
=37	=37	=37	=37
2D\]	2d\	2f\]	2r
4C/	2d\	4e\	2a/
4BB/	.	4d\	.
1AA	2c\	1e	2a/
.	4B\	.	2a/
.	4A/	.	.
=38	=38	=38	=38
0r	1B	1E	2g/
.	.	.	2g/
.	2A/	2.F/	2.a/
.	[2c\	.	.
.	.	4G/	8g/L
.	.	.	8f/J
=39	=39	=39	=39
2r	4c\]	4A/	1e
.	4B\	4B\	.
2A\	4A/	1c	.
.	4G/	.	.
2A\	1F	.	1r
2A\	.	4B\	.
.	.	4A/	.
=40	=40	=40	=40
2G\	1E	1B	2r
2G\	.	.	2.e/
2A\	2r	2A/	.
.	.	.	4d/
2AA/	2E/	[2c\	[2e/
=41	=41	=41	=41
2AA/	2E/	4c\]	2e/]
.	.	4B\	.
2AA/	2F/	1A	4d/
.	.	.	4c/
1BB	1D	.	1d
.	.	2G#i/	.
=42	=42	=42	=42
0AA	1E	2A/	1c
.	.	2c\	.
.	2.E/	2c\	1r
.	.	2c\	.
.	4F/	.	.
=43	=43	=43	=43
1r	2G/	2.B\	2r
.	2A/	.	2e/
.	.	4c\	.
2r	2B\	2d\	2d/
2AA/	2c\	2A/	2e/
=44	=44	=44	=44
2BB/	2B\	1r	2d/
2AA/	2.c\	.	1e
2.C/	.	2r	.
.	4B\	.	.
.	[2A/	2e\	4d/
4D\	.	.	4c/
=45	=45	=45	=45
1E	2A/]	2e\	1B
.	2G#i/	2e\	.
1AA	4A/	2.c\	2r
.	4Gni/	.	.
.	4A/	.	[2A/
.	4B\	4d\	.
=46	=46	=46	=46
2r	4c\	1e	4A/]
.	4B\	.	4G/
2.AA/	4c\	.	4A/
.	4d\	.	4B/
.	2e\	1A	4c/
4GG/	.	.	4B/
4AA/	2c\	.	4c/
4BB/	.	.	4d/
=47	=47	=47	=47
4C/	2c\	0r	4e/
4BB/	.	.	4d/
4C/	2c\	.	4e/
4D\	.	.	4f/
4E\	2B\	.	4g/
4D\	.	.	4f/
4E\	2e\	.	4g/
4F\	.	.	4a/
=48	=48	=48	=48
2G\	4d\	2r	4b\
.	4c\	.	4cc\
2A\	4B\	2e\	1a
.	4A/	.	.
1E	1B	2e\	.
.	.	2e\	2g#i/
=49	=49	=49	=49
0AAl	0Al	2.c\	0al
.	.	4d\	.
.	.	1el	.
==	==	==	==
*-	*-	*-	*-
!!!RDF**kern: l=long note in original notation
!!!RDF**kern: i=editorial accidental
!!!ENC:	Jesse Rodin; Victoria Chang 2011/10/21
!!!END:	2011/10/21/
!!!EED:	Jesse Rodin
!!!EEV:	2011/12/16/
!!attribution-level@Jos: 3 (tricky)
!!!ONB:	Translated from MusicXML and edited on 2011/12/16/ by Craig Sapp
!!muse2ps: C^@{COA}?\n@{SCT}^i2I150v90,90,90,150Q16
